ubersicht/widgets/weather.widget/lib/icons/cloud-sun.svg

<svg xmlns="http://www.w3.org/2000/svg" xml:space="preserve" style="fill-rule:evenodd;clip-rule:evenodd;stroke-linejoin:round;stroke-miterlimit:2" viewBox="0 0 200 200">
    <path d="M-1200.682-1183.816h3426.96v2296.67h-3426.96z"/>
    <path d="M20.856 28.841h194.975v135.49H20.856z" style="fill:none" transform="matrix(1.02577 0 0 1.47613 -21.393 -42.573)"/>
    <path d="M291.465 86.565c5.9-10.695 17.287-17.947 30.355-17.947 19.119 0 34.642 15.523 34.642 34.642a34.47 34.47 0 0 1-6.13 19.67 23.4 23.4 0 0 0-4.51-3.698c-5.708-5.831-14.241-6.633-19.312-6.742-1.352-4.913-4.461-12.639-12.406-17.553-5.147-4.308-12.393-7.648-22.639-8.372" style="fill:#fff700" transform="translate(-251.592 -26.378)scale(1.152)"/>
    <path d="m93.516 33.513-.039-16s.032-2.088.472-3c.481-1 1.473-2.378 2.418-3 1.175-.774 2.495-1.206 3.795-1.178s2.959.651 4 1.347c1.001.67 1.794 1.859 2.245 2.831.425.918.46 3 .46 3l-.005 16s-.062 1.429-.61 2.701c-.428.995-1.284 1.817-1.774 2.299-1.094 1.074-2.874 1.585-4.316 1.585-1.443 0-3.246-.501-4.339-1.585-.487-.482-1.389-1.421-1.802-2.416-.527-1.272-.505-2.584-.505-2.584" style="fill:#ff0" transform="translate(39.25 11.43)scale(.79814)"/>
    <path d="m93.516 33.513-.039-16s.032-2.088.472-3c.481-1 1.473-2.378 2.418-3 1.175-.774 2.495-1.206 3.795-1.178s2.959.651 4 1.347c1.001.67 1.794 1.859 2.245 2.831.425.918.46 3 .46 3l-.005 16s-.062 1.429-.61 2.701c-.428.995-1.284 1.817-1.774 2.299-1.094 1.074-2.874 1.585-4.316 1.585-1.443 0-3.246-.501-4.339-1.585-.487-.482-1.389-1.421-1.802-2.416-.527-1.272-.505-2.584-.505-2.584" style="fill:#ff0" transform="matrix(.6912 -.39907 .39907 .69121 9.48 62.253)"/>
    <path d="m93.516 33.513-.039-16s.032-2.088.472-3c.481-1 1.473-2.378 2.418-3 1.175-.774 2.495-1.206 3.795-1.178s2.959.651 4 1.347c1.001.67 1.794 1.859 2.245 2.831.425.918.46 3 .46 3l-.005 16s-.062 1.429-.61 2.701c-.428.995-1.284 1.817-1.774 2.299-1.094 1.074-2.874 1.585-4.316 1.585-1.443 0-3.246-.501-4.339-1.585-.487-.482-1.389-1.421-1.802-2.416-.527-1.272-.505-2.584-.505-2.584" style="fill:#ff0" transform="matrix(.39907 -.69121 .6912 .39907 9.11 121.152)"/>
    <path d="m93.516 33.513-.039-16s.032-2.088.472-3c.481-1 1.473-2.378 2.418-3 1.175-.774 2.495-1.206 3.795-1.178s2.959.651 4 1.347c1.001.67 1.794 1.859 2.245 2.831.425.918.46 3 .46 3l-.005 16s-.062 1.429-.61 2.701c-.428.995-1.284 1.817-1.774 2.299-1.094 1.074-2.874 1.585-4.316 1.585-1.443 0-3.246-.501-4.339-1.585-.487-.482-1.389-1.421-1.802-2.416-.527-1.272-.505-2.584-.505-2.584" style="fill:#ff0" transform="matrix(-.39907 .69121 -.6912 -.39907 229.292 63.633)"/>
    <path d="m93.516 33.513-.039-16s.032-2.088.472-3c.481-1 1.473-2.378 2.418-3 1.175-.774 2.495-1.206 3.795-1.178s2.959.651 4 1.347c1.001.67 1.794 1.859 2.245 2.831.425.918.46 3 .46 3l-.005 16s-.062 1.429-.61 2.701c-.428.995-1.284 1.817-1.774 2.299-1.094 1.074-2.874 1.585-4.316 1.585-1.443 0-3.246-.501-4.339-1.585-.487-.482-1.389-1.421-1.802-2.416-.527-1.272-.505-2.584-.505-2.584" style="fill:#ff0" transform="rotate(90 93.862 106.302)scale(.79814)"/>
    <path d="m93.516 33.513-.039-16s.032-2.088.472-3c.481-1 1.473-2.378 2.418-3 1.175-.774 2.495-1.206 3.795-1.178s2.959.651 4 1.347c1.001.67 1.794 1.859 2.245 2.831.425.918.46 3 .46 3l-.005 16s-.062 1.429-.61 2.701c-.428.995-1.284 1.817-1.774 2.299-1.094 1.074-2.874 1.585-4.316 1.585-1.443 0-3.246-.501-4.339-1.585-.487-.482-1.389-1.421-1.802-2.416-.527-1.272-.505-2.584-.505-2.584" style="fill:#ff0" transform="matrix(.39907 .69121 -.6912 .39907 149.34 -17.33)"/>
    <path d="m93.516 33.513-.039-16s.032-2.088.472-3c.481-1 1.473-2.378 2.418-3 1.175-.774 2.495-1.206 3.795-1.178s2.959.651 4 1.347c1.001.67 1.794 1.859 2.245 2.831.425.918.46 3 .46 3l-.005 16s-.062 1.429-.61 2.701c-.428.995-1.284 1.817-1.774 2.299-1.094 1.074-2.874 1.585-4.316 1.585-1.443 0-3.246-.501-4.339-1.585-.487-.482-1.389-1.421-1.802-2.416-.527-1.272-.505-2.584-.505-2.584" style="fill:#ff0" transform="matrix(.6912 .39907 -.39907 .69121 90.442 -17.699)"/>
    <path d="M59.694 92.473c2.238-10.8 13.266-32.983 39.401-31.446 27.803 1.635 36.027 20.475 38.83 30.639 7.145.151 19.243 1.289 27.167 9.718 5.218 5.551 9.131 13.987 8.824 27.031-.294 12.469-11.774 26.563-24.142 29.85-9.87 2.623-28.724 1.291-47.131.936-16.87-.325-33.365.48-42.224-.621-8.593-1.069-17.961-8.497-21.796-14.136-3.991-5.87-5.19-12.478-5.178-18.679.022-10.397 3.434-16.557 7.253-21.658 5.878-7.852 13.634-10.551 18.996-11.634m10.18 10.227c-7.902 1.07-13.874 1.4-19.208 8.526-2.468 3.297-4.633 7.931-4.647 14.651a20 20 0 0 0 3.426 11.166c2.429 3.574 8.09 8.711 13.527 9.226 7.742.733 23.272.409 39.359.564 17.324.166 35.095.906 43.62-.769 8.02-1.576 15.3-11.324 15.478-18.879.198-8.413-2.686-13.088-6.052-16.668-7.815-8.314-14.76-6.575-20.145-6.735-1.997-.06-7.05-.045-7.05-.045s-.422-3.737-.577-5.581c0 0-2.997-23.542-29.046-25.074-11.026-.648-18.547 5.237-22.365 11.348-4.146 6.636-3.834 6.406-4.887 9.451-.974 2.814-.948 6.219-1.433 8.819" style="fill:#fff" transform="translate(-26.694 14.091)scale(1.0399)"/>
    <path d="M291.465 86.565c5.9-10.695 17.287-17.947 30.355-17.947 19.119 0 34.642 15.523 34.642 34.642a34.47 34.47 0 0 1-6.13 19.67 23.4 23.4 0 0 0-4.51-3.698c-5.708-5.831-14.241-6.633-19.312-6.742-1.352-4.913-4.461-12.639-12.406-17.553-5.147-4.308-12.393-7.648-22.639-8.372" style="fill:#fff700" transform="translate(-251.592 -26.378)scale(1.152)"/>
    <path d="m93.516 33.513-.039-16s.032-2.088.472-3c.481-1 1.473-2.378 2.418-3 1.175-.774 2.495-1.206 3.795-1.178s2.959.651 4 1.347c1.001.67 1.794 1.859 2.245 2.831.425.918.46 3 .46 3l-.005 16s-.062 1.429-.61 2.701c-.428.995-1.284 1.817-1.774 2.299-1.094 1.074-2.874 1.585-4.316 1.585-1.443 0-3.246-.501-4.339-1.585-.487-.482-1.389-1.421-1.802-2.416-.527-1.272-.505-2.584-.505-2.584" style="fill:#ff0" transform="translate(39.25 11.43)scale(.79814)"/>
    <path d="m93.516 33.513-.039-16s.032-2.088.472-3c.481-1 1.473-2.378 2.418-3 1.175-.774 2.495-1.206 3.795-1.178s2.959.651 4 1.347c1.001.67 1.794 1.859 2.245 2.831.425.918.46 3 .46 3l-.005 16s-.062 1.429-.61 2.701c-.428.995-1.284 1.817-1.774 2.299-1.094 1.074-2.874 1.585-4.316 1.585-1.443 0-3.246-.501-4.339-1.585-.487-.482-1.389-1.421-1.802-2.416-.527-1.272-.505-2.584-.505-2.584" style="fill:#ff0" transform="matrix(.6912 -.39907 .39907 .69121 9.48 62.253)"/>
    <path d="m93.516 33.513-.039-16s.032-2.088.472-3c.481-1 1.473-2.378 2.418-3 1.175-.774 2.495-1.206 3.795-1.178s2.959.651 4 1.347c1.001.67 1.794 1.859 2.245 2.831.425.918.46 3 .46 3l-.005 16s-.062 1.429-.61 2.701c-.428.995-1.284 1.817-1.774 2.299-1.094 1.074-2.874 1.585-4.316 1.585-1.443 0-3.246-.501-4.339-1.585-.487-.482-1.389-1.421-1.802-2.416-.527-1.272-.505-2.584-.505-2.584" style="fill:#ff0" transform="matrix(.39907 -.69121 .6912 .39907 9.11 121.152)"/>
    <path d="m93.516 33.513-.039-16s.032-2.088.472-3c.481-1 1.473-2.378 2.418-3 1.175-.774 2.495-1.206 3.795-1.178s2.959.651 4 1.347c1.001.67 1.794 1.859 2.245 2.831.425.918.46 3 .46 3l-.005 16s-.062 1.429-.61 2.701c-.428.995-1.284 1.817-1.774 2.299-1.094 1.074-2.874 1.585-4.316 1.585-1.443 0-3.246-.501-4.339-1.585-.487-.482-1.389-1.421-1.802-2.416-.527-1.272-.505-2.584-.505-2.584" style="fill:#ff0" transform="matrix(-.39907 .69121 -.6912 -.39907 229.292 63.633)"/>
    <path d="m93.516 33.513-.039-16s.032-2.088.472-3c.481-1 1.473-2.378 2.418-3 1.175-.774 2.495-1.206 3.795-1.178s2.959.651 4 1.347c1.001.67 1.794 1.859 2.245 2.831.425.918.46 3 .46 3l-.005 16s-.062 1.429-.61 2.701c-.428.995-1.284 1.817-1.774 2.299-1.094 1.074-2.874 1.585-4.316 1.585-1.443 0-3.246-.501-4.339-1.585-.487-.482-1.389-1.421-1.802-2.416-.527-1.272-.505-2.584-.505-2.584" style="fill:#ff0" transform="rotate(90 93.862 106.302)scale(.79814)"/>
    <path d="m93.516 33.513-.039-16s.032-2.088.472-3c.481-1 1.473-2.378 2.418-3 1.175-.774 2.495-1.206 3.795-1.178s2.959.651 4 1.347c1.001.67 1.794 1.859 2.245 2.831.425.918.46 3 .46 3l-.005 16s-.062 1.429-.61 2.701c-.428.995-1.284 1.817-1.774 2.299-1.094 1.074-2.874 1.585-4.316 1.585-1.443 0-3.246-.501-4.339-1.585-.487-.482-1.389-1.421-1.802-2.416-.527-1.272-.505-2.584-.505-2.584" style="fill:#ff0" transform="matrix(.39907 .69121 -.6912 .39907 149.34 -17.33)"/>
    <path d="m93.516 33.513-.039-16s.032-2.088.472-3c.481-1 1.473-2.378 2.418-3 1.175-.774 2.495-1.206 3.795-1.178s2.959.651 4 1.347c1.001.67 1.794 1.859 2.245 2.831.425.918.46 3 .46 3l-.005 16s-.062 1.429-.61 2.701c-.428.995-1.284 1.817-1.774 2.299-1.094 1.074-2.874 1.585-4.316 1.585-1.443 0-3.246-.501-4.339-1.585-.487-.482-1.389-1.421-1.802-2.416-.527-1.272-.505-2.584-.505-2.584" style="fill:#ff0" transform="matrix(.6912 .39907 -.39907 .69121 90.442 -17.699)"/>
    <path d="M59.694 92.473c2.238-10.8 13.266-32.983 39.401-31.446 27.803 1.635 36.027 20.475 38.83 30.639 7.145.151 19.243 1.289 27.167 9.718 5.218 5.551 9.131 13.987 8.824 27.031-.294 12.469-11.774 26.563-24.142 29.85-9.87 2.623-28.724 1.291-47.131.936-16.87-.325-33.365.48-42.224-.621-8.593-1.069-17.961-8.497-21.796-14.136-3.991-5.87-5.19-12.478-5.178-18.679.022-10.397 3.434-16.557 7.253-21.658 5.878-7.852 13.634-10.551 18.996-11.634m10.18 10.227c-7.902 1.07-13.874 1.4-19.208 8.526-2.468 3.297-4.633 7.931-4.647 14.651a20 20 0 0 0 3.426 11.166c2.429 3.574 8.09 8.711 13.527 9.226 7.742.733 23.272.409 39.359.564 17.324.166 35.095.906 43.62-.769 8.02-1.576 15.3-11.324 15.478-18.879.198-8.413-2.686-13.088-6.052-16.668-7.815-8.314-14.76-6.575-20.145-6.735-1.997-.06-7.05-.045-7.05-.045s-.422-3.737-.577-5.581c0 0-2.997-23.542-29.046-25.074-11.026-.648-18.547 5.237-22.365 11.348-4.146 6.636-3.834 6.406-4.887 9.451-.974 2.814-.948 6.219-1.433 8.819" style="fill:#fff" transform="translate(-26.694 14.091)scale(1.0399)"/>
</svg>

<?xml version="1.0" encoding="UTF-8" standalone="no"?>
<!DOCTYPE svg PUBLIC "-//W3C//DTD SVG 1.1//EN" "http://www.w3.org/Graphics/SVG/1.1/DTD/svg11.dtd">
<svg width="100%" height="100%" viewBox="0 0 200 200" version="1.1" xmlns="http://www.w3.org/2000/svg" xmlns:xlink="http://www.w3.org/1999/xlink" xml:space="preserve" xmlns:serif="http://www.serif.com/" style="fill-rule:evenodd;clip-rule:evenodd;stroke-linejoin:round;stroke-miterlimit:2;">
    <g transform="matrix(1,0,0,1,-435.95,-270.959)">
        <g transform="matrix(1,0,0,1,292.408,-172.397)">
            <rect x="-1057.14" y="-740.46" width="3426.96" height="2296.67"/>
        </g>
        <g id="CloudSun" transform="matrix(1.02577,0,0,1.47613,414.557,228.386)">
            <rect x="20.856" y="28.841" width="194.975" height="135.49" style="fill:none;"/>
            <g transform="matrix(1.12305,-0.000390863,0.000562467,0.780416,-224.416,10.9715)">
                <path d="M291.465,86.565C297.365,75.87 308.752,68.618 321.82,68.618C340.939,68.618 356.462,84.141 356.462,103.26C356.462,110.563 354.197,117.341 350.332,122.93C348.949,121.466 347.426,120.247 345.822,119.232C340.114,113.401 331.581,112.599 326.51,112.49C325.158,107.577 322.049,99.851 314.104,94.937C308.957,90.629 301.711,87.289 291.465,86.565Z" style="fill:rgb(255,247,0);"/>
            </g>
            <g transform="matrix(0.778088,0,0,0.5407,59.1193,36.5843)">
                <path d="M93.516,33.513L93.477,17.513C93.477,17.513 93.509,15.425 93.949,14.513C94.43,13.513 95.422,12.135 96.367,11.513C97.542,10.739 98.862,10.307 100.162,10.335C101.461,10.363 103.121,10.986 104.162,11.682C105.163,12.352 105.956,13.541 106.407,14.513C106.832,15.431 106.867,17.513 106.867,17.513L106.862,33.513C106.862,33.513 106.8,34.942 106.252,36.214C105.824,37.209 104.968,38.031 104.478,38.513C103.384,39.587 101.604,40.098 100.162,40.098C98.719,40.098 96.916,39.597 95.823,38.513C95.336,38.031 94.434,37.092 94.021,36.097C93.494,34.825 93.516,33.513 93.516,33.513Z" style="fill:rgb(255,255,0);"/>
            </g>
            <g transform="matrix(0.673844,-0.27035,0.389044,0.46826,30.0978,71.014)">
                <path d="M93.516,33.513L93.477,17.513C93.477,17.513 93.509,15.425 93.949,14.513C94.43,13.513 95.422,12.135 96.367,11.513C97.542,10.739 98.862,10.307 100.162,10.335C101.461,10.363 103.121,10.986 104.162,11.682C105.163,12.352 105.956,13.541 106.407,14.513C106.832,15.431 106.867,17.513 106.867,17.513L106.862,33.513C106.862,33.513 106.8,34.942 106.252,36.214C105.824,37.209 104.968,38.031 104.478,38.513C103.384,39.587 101.604,40.098 100.162,40.098C98.719,40.098 96.916,39.597 95.823,38.513C95.336,38.031 94.434,37.092 94.021,36.097C93.494,34.825 93.516,33.513 93.516,33.513Z" style="fill:rgb(255,255,0);"/>
            </g>
            <g transform="matrix(0.389044,-0.46826,0.673844,0.27035,29.7374,110.915)">
                <path d="M93.516,33.513L93.477,17.513C93.477,17.513 93.509,15.425 93.949,14.513C94.43,13.513 95.422,12.135 96.367,11.513C97.542,10.739 98.862,10.307 100.162,10.335C101.461,10.363 103.121,10.986 104.162,11.682C105.163,12.352 105.956,13.541 106.407,14.513C106.832,15.431 106.867,17.513 106.867,17.513L106.862,33.513C106.862,33.513 106.8,34.942 106.252,36.214C105.824,37.209 104.968,38.031 104.478,38.513C103.384,39.587 101.604,40.098 100.162,40.098C98.719,40.098 96.916,39.597 95.823,38.513C95.336,38.031 94.434,37.092 94.021,36.097C93.494,34.825 93.516,33.513 93.516,33.513Z" style="fill:rgb(255,255,0);"/>
            </g>
            <g transform="matrix(-0.389044,0.46826,-0.673844,-0.27035,244.387,71.9488)">
                <path d="M93.516,33.513L93.477,17.513C93.477,17.513 93.509,15.425 93.949,14.513C94.43,13.513 95.422,12.135 96.367,11.513C97.542,10.739 98.862,10.307 100.162,10.335C101.461,10.363 103.121,10.986 104.162,11.682C105.163,12.352 105.956,13.541 106.407,14.513C106.832,15.431 106.867,17.513 106.867,17.513L106.862,33.513C106.862,33.513 106.8,34.942 106.252,36.214C105.824,37.209 104.968,38.031 104.478,38.513C103.384,39.587 101.604,40.098 100.162,40.098C98.719,40.098 96.916,39.597 95.823,38.513C95.336,38.031 94.434,37.092 94.021,36.097C93.494,34.825 93.516,33.513 93.516,33.513Z" style="fill:rgb(255,255,0);"/>
            </g>
            <g transform="matrix(-1.24974e-16,0.5407,-0.778088,-1.92197e-16,215.99,37.2687)">
                <path d="M93.516,33.513L93.477,17.513C93.477,17.513 93.509,15.425 93.949,14.513C94.43,13.513 95.422,12.135 96.367,11.513C97.542,10.739 98.862,10.307 100.162,10.335C101.461,10.363 103.121,10.986 104.162,11.682C105.163,12.352 105.956,13.541 106.407,14.513C106.832,15.431 106.867,17.513 106.867,17.513L106.862,33.513C106.862,33.513 106.8,34.942 106.252,36.214C105.824,37.209 104.968,38.031 104.478,38.513C103.384,39.587 101.604,40.098 100.162,40.098C98.719,40.098 96.916,39.597 95.823,38.513C95.336,38.031 94.434,37.092 94.021,36.097C93.494,34.825 93.516,33.513 93.516,33.513Z" style="fill:rgb(255,255,0);"/>
            </g>
            <g transform="matrix(0.389044,0.46826,-0.673844,0.27035,166.444,17.1014)">
                <path d="M93.516,33.513L93.477,17.513C93.477,17.513 93.509,15.425 93.949,14.513C94.43,13.513 95.422,12.135 96.367,11.513C97.542,10.739 98.862,10.307 100.162,10.335C101.461,10.363 103.121,10.986 104.162,11.682C105.163,12.352 105.956,13.541 106.407,14.513C106.832,15.431 106.867,17.513 106.867,17.513L106.862,33.513C106.862,33.513 106.8,34.942 106.252,36.214C105.824,37.209 104.968,38.031 104.478,38.513C103.384,39.587 101.604,40.098 100.162,40.098C98.719,40.098 96.916,39.597 95.823,38.513C95.336,38.031 94.434,37.092 94.021,36.097C93.494,34.825 93.516,33.513 93.516,33.513Z" style="fill:rgb(255,255,0);"/>
            </g>
            <g transform="matrix(0.673844,0.27035,-0.389044,0.46826,109.025,16.8509)">
                <path d="M93.516,33.513L93.477,17.513C93.477,17.513 93.509,15.425 93.949,14.513C94.43,13.513 95.422,12.135 96.367,11.513C97.542,10.739 98.862,10.307 100.162,10.335C101.461,10.363 103.121,10.986 104.162,11.682C105.163,12.352 105.956,13.541 106.407,14.513C106.832,15.431 106.867,17.513 106.867,17.513L106.862,33.513C106.862,33.513 106.8,34.942 106.252,36.214C105.824,37.209 104.968,38.031 104.478,38.513C103.384,39.587 101.604,40.098 100.162,40.098C98.719,40.098 96.916,39.597 95.823,38.513C95.336,38.031 94.434,37.092 94.021,36.097C93.494,34.825 93.516,33.513 93.516,33.513Z" style="fill:rgb(255,255,0);"/>
            </g>
            <g transform="matrix(1.01377,0,0,0.704474,-5.16765,38.387)">
                <path d="M59.694,92.473C61.932,81.673 72.96,59.49 99.095,61.027C126.898,62.662 135.122,81.502 137.925,91.666C145.07,91.817 157.168,92.955 165.092,101.384C170.31,106.935 174.223,115.371 173.916,128.415C173.622,140.884 162.142,154.978 149.774,158.265C139.904,160.888 121.05,159.556 102.643,159.201C85.773,158.876 69.278,159.681 60.419,158.58C51.826,157.511 42.458,150.083 38.623,144.444C34.632,138.574 33.433,131.966 33.445,125.765C33.467,115.368 36.879,109.208 40.698,104.107C46.576,96.255 54.332,93.556 59.694,92.473ZM69.874,102.7C61.972,103.77 56,104.1 50.666,111.226C48.198,114.523 46.033,119.157 46.019,125.877C46.011,129.547 47.082,133.569 49.445,137.043C51.874,140.617 57.535,145.754 62.972,146.269C70.714,147.002 86.244,146.678 102.331,146.833C119.655,146.999 137.426,147.739 145.951,146.064C153.971,144.488 161.251,134.74 161.429,127.185C161.627,118.772 158.743,114.097 155.377,110.517C147.562,102.203 140.617,103.942 135.232,103.782C133.235,103.722 128.182,103.737 128.182,103.737C128.182,103.737 127.76,100 127.605,98.156C127.605,98.156 124.608,74.614 98.559,73.082C87.533,72.434 80.012,78.319 76.194,84.43C72.048,91.066 72.36,90.836 71.307,93.881C70.333,96.695 70.359,100.1 69.874,102.7Z" style="fill:white;"/>
            </g>
            <g transform="matrix(1.12305,-0.000390863,0.000562467,0.780416,-224.416,10.9715)">
                <path d="M291.465,86.565C297.365,75.87 308.752,68.618 321.82,68.618C340.939,68.618 356.462,84.141 356.462,103.26C356.462,110.563 354.197,117.341 350.332,122.93C348.949,121.466 347.426,120.247 345.822,119.232C340.114,113.401 331.581,112.599 326.51,112.49C325.158,107.577 322.049,99.851 314.104,94.937C308.957,90.629 301.711,87.289 291.465,86.565Z" style="fill:rgb(255,247,0);"/>
            </g>
            <g transform="matrix(0.778088,0,0,0.5407,59.1193,36.5843)">
                <path d="M93.516,33.513L93.477,17.513C93.477,17.513 93.509,15.425 93.949,14.513C94.43,13.513 95.422,12.135 96.367,11.513C97.542,10.739 98.862,10.307 100.162,10.335C101.461,10.363 103.121,10.986 104.162,11.682C105.163,12.352 105.956,13.541 106.407,14.513C106.832,15.431 106.867,17.513 106.867,17.513L106.862,33.513C106.862,33.513 106.8,34.942 106.252,36.214C105.824,37.209 104.968,38.031 104.478,38.513C103.384,39.587 101.604,40.098 100.162,40.098C98.719,40.098 96.916,39.597 95.823,38.513C95.336,38.031 94.434,37.092 94.021,36.097C93.494,34.825 93.516,33.513 93.516,33.513Z" style="fill:rgb(255,255,0);"/>
            </g>
            <g transform="matrix(0.673844,-0.27035,0.389044,0.46826,30.0978,71.014)">
                <path d="M93.516,33.513L93.477,17.513C93.477,17.513 93.509,15.425 93.949,14.513C94.43,13.513 95.422,12.135 96.367,11.513C97.542,10.739 98.862,10.307 100.162,10.335C101.461,10.363 103.121,10.986 104.162,11.682C105.163,12.352 105.956,13.541 106.407,14.513C106.832,15.431 106.867,17.513 106.867,17.513L106.862,33.513C106.862,33.513 106.8,34.942 106.252,36.214C105.824,37.209 104.968,38.031 104.478,38.513C103.384,39.587 101.604,40.098 100.162,40.098C98.719,40.098 96.916,39.597 95.823,38.513C95.336,38.031 94.434,37.092 94.021,36.097C93.494,34.825 93.516,33.513 93.516,33.513Z" style="fill:rgb(255,255,0);"/>
            </g>
            <g transform="matrix(0.389044,-0.46826,0.673844,0.27035,29.7374,110.915)">
                <path d="M93.516,33.513L93.477,17.513C93.477,17.513 93.509,15.425 93.949,14.513C94.43,13.513 95.422,12.135 96.367,11.513C97.542,10.739 98.862,10.307 100.162,10.335C101.461,10.363 103.121,10.986 104.162,11.682C105.163,12.352 105.956,13.541 106.407,14.513C106.832,15.431 106.867,17.513 106.867,17.513L106.862,33.513C106.862,33.513 106.8,34.942 106.252,36.214C105.824,37.209 104.968,38.031 104.478,38.513C103.384,39.587 101.604,40.098 100.162,40.098C98.719,40.098 96.916,39.597 95.823,38.513C95.336,38.031 94.434,37.092 94.021,36.097C93.494,34.825 93.516,33.513 93.516,33.513Z" style="fill:rgb(255,255,0);"/>
            </g>
            <g transform="matrix(-0.389044,0.46826,-0.673844,-0.27035,244.387,71.9488)">
                <path d="M93.516,33.513L93.477,17.513C93.477,17.513 93.509,15.425 93.949,14.513C94.43,13.513 95.422,12.135 96.367,11.513C97.542,10.739 98.862,10.307 100.162,10.335C101.461,10.363 103.121,10.986 104.162,11.682C105.163,12.352 105.956,13.541 106.407,14.513C106.832,15.431 106.867,17.513 106.867,17.513L106.862,33.513C106.862,33.513 106.8,34.942 106.252,36.214C105.824,37.209 104.968,38.031 104.478,38.513C103.384,39.587 101.604,40.098 100.162,40.098C98.719,40.098 96.916,39.597 95.823,38.513C95.336,38.031 94.434,37.092 94.021,36.097C93.494,34.825 93.516,33.513 93.516,33.513Z" style="fill:rgb(255,255,0);"/>
            </g>
            <g transform="matrix(-1.24974e-16,0.5407,-0.778088,-1.92197e-16,215.99,37.2687)">
                <path d="M93.516,33.513L93.477,17.513C93.477,17.513 93.509,15.425 93.949,14.513C94.43,13.513 95.422,12.135 96.367,11.513C97.542,10.739 98.862,10.307 100.162,10.335C101.461,10.363 103.121,10.986 104.162,11.682C105.163,12.352 105.956,13.541 106.407,14.513C106.832,15.431 106.867,17.513 106.867,17.513L106.862,33.513C106.862,33.513 106.8,34.942 106.252,36.214C105.824,37.209 104.968,38.031 104.478,38.513C103.384,39.587 101.604,40.098 100.162,40.098C98.719,40.098 96.916,39.597 95.823,38.513C95.336,38.031 94.434,37.092 94.021,36.097C93.494,34.825 93.516,33.513 93.516,33.513Z" style="fill:rgb(255,255,0);"/>
            </g>
            <g transform="matrix(0.389044,0.46826,-0.673844,0.27035,166.444,17.1014)">
                <path d="M93.516,33.513L93.477,17.513C93.477,17.513 93.509,15.425 93.949,14.513C94.43,13.513 95.422,12.135 96.367,11.513C97.542,10.739 98.862,10.307 100.162,10.335C101.461,10.363 103.121,10.986 104.162,11.682C105.163,12.352 105.956,13.541 106.407,14.513C106.832,15.431 106.867,17.513 106.867,17.513L106.862,33.513C106.862,33.513 106.8,34.942 106.252,36.214C105.824,37.209 104.968,38.031 104.478,38.513C103.384,39.587 101.604,40.098 100.162,40.098C98.719,40.098 96.916,39.597 95.823,38.513C95.336,38.031 94.434,37.092 94.021,36.097C93.494,34.825 93.516,33.513 93.516,33.513Z" style="fill:rgb(255,255,0);"/>
            </g>
            <g transform="matrix(0.673844,0.27035,-0.389044,0.46826,109.025,16.8509)">
                <path d="M93.516,33.513L93.477,17.513C93.477,17.513 93.509,15.425 93.949,14.513C94.43,13.513 95.422,12.135 96.367,11.513C97.542,10.739 98.862,10.307 100.162,10.335C101.461,10.363 103.121,10.986 104.162,11.682C105.163,12.352 105.956,13.541 106.407,14.513C106.832,15.431 106.867,17.513 106.867,17.513L106.862,33.513C106.862,33.513 106.8,34.942 106.252,36.214C105.824,37.209 104.968,38.031 104.478,38.513C103.384,39.587 101.604,40.098 100.162,40.098C98.719,40.098 96.916,39.597 95.823,38.513C95.336,38.031 94.434,37.092 94.021,36.097C93.494,34.825 93.516,33.513 93.516,33.513Z" style="fill:rgb(255,255,0);"/>
            </g>
            <g transform="matrix(1.01377,0,0,0.704474,-5.16765,38.387)">
                <path d="M59.694,92.473C61.932,81.673 72.96,59.49 99.095,61.027C126.898,62.662 135.122,81.502 137.925,91.666C145.07,91.817 157.168,92.955 165.092,101.384C170.31,106.935 174.223,115.371 173.916,128.415C173.622,140.884 162.142,154.978 149.774,158.265C139.904,160.888 121.05,159.556 102.643,159.201C85.773,158.876 69.278,159.681 60.419,158.58C51.826,157.511 42.458,150.083 38.623,144.444C34.632,138.574 33.433,131.966 33.445,125.765C33.467,115.368 36.879,109.208 40.698,104.107C46.576,96.255 54.332,93.556 59.694,92.473ZM69.874,102.7C61.972,103.77 56,104.1 50.666,111.226C48.198,114.523 46.033,119.157 46.019,125.877C46.011,129.547 47.082,133.569 49.445,137.043C51.874,140.617 57.535,145.754 62.972,146.269C70.714,147.002 86.244,146.678 102.331,146.833C119.655,146.999 137.426,147.739 145.951,146.064C153.971,144.488 161.251,134.74 161.429,127.185C161.627,118.772 158.743,114.097 155.377,110.517C147.562,102.203 140.617,103.942 135.232,103.782C133.235,103.722 128.182,103.737 128.182,103.737C128.182,103.737 127.76,100 127.605,98.156C127.605,98.156 124.608,74.614 98.559,73.082C87.533,72.434 80.012,78.319 76.194,84.43C72.048,91.066 72.36,90.836 71.307,93.881C70.333,96.695 70.359,100.1 69.874,102.7Z" style="fill:white;"/>
            </g>
        </g>
    </g>
</svg>
